X:2
T:Sandansko horo
R:sandansko horo
H:See also #1
D:Theodosii Spassov Quartet
O:Bulgaria
Z:id:hn-sandanskohoro-2
M:22/16
L:1/16
Q:2/16=180
K:Edor
E2B2A2 B3 GAAGBA A2G GFFE |1 EFG2GF A2G GFFEFE E2D EFGA :|
[2 EFG2GF A2G GFFEFE EEE E2E2 ||
|: EFG2GF A2G GFFEGA A2B AGGF | EFG2GF A2G GFFEFE EEE E2E2 :|
|: e2beae b2b a2agba a2g gffe |1 efg2gf a2g gffefe e2e efga :|
[2 efg2gf a2g gffefe e2e e2e2 ||
|: efg2gf a2g gffega a2b aggf | efg2gf a2g gffefe e2e e2e2 :| !fine!
|: fga2ag g2f fgabc'b a2g fggf |1 fga2ag g2f fgabag gfg f2fd :|
[2 fga2ag g2f fgabag gfg f2f2 ||

